assets/symbols/mulberry/aftershave_1.svg

<svg height="850.394" viewBox="0 0 850.394 850.394" width="850.394" xmlns="http://www.w3.org/2000/svg"><path d="m368 368.25h113.386v113.386h-113.386z" fill="none"/><path d="m656.21 713.39s4.5 58.431-71.91 58.431h-328.32c-76.41 0-71.91-58.431-71.91-58.431v-446.88l62.92-51.36h346.31l62.91 51.36zm-108.73-155.38v-226.01h-256.83v226.01z" fill="#a3d9ff"/><path d="m547.48 332v226.01h-256.83v-226.01zm-30.39 199.27v-172.54h-196.06v172.54z" fill="#0b00ea"/><path d="m321.03 358.73h196.06v172.54h-196.06zm166.09-210.36h-168.86v-75.77h201.61v75.77z" fill="#fff400"/><g fill="none"><g stroke="#231f20"><path d="m408.37 771.82h175.93c76.41 0 71.91-58.431 71.91-58.431v-446.879l-62.91-51.36h-346.31l-62.92 51.36v446.88s-4.5 58.431 71.91 58.431h152.39z" stroke-width="21"/><path d="m290.65 332h256.831v226.01h-256.831z" stroke-width="21"/><path d="m321.03 358.73h196.06v172.54h-196.06z" stroke-width="14"/><g stroke-linecap="round" stroke-linejoin="round"><path d="m487.12 147.08v61h-134.19v-59.71" stroke-width="21"/><path d="m352.93 148.37h-34.67v-75.77h201.61v75.77h-32.75z" stroke-width="35"/></g></g><path d="m0 0h850.394v850.394h-850.394z"/></g></svg>

<svg xmlns="http://www.w3.org/2000/svg" width="850.394" height="850.394" viewBox="0 0 850.394 850.394" overflow="visible"><path fill="none" d="M368 368.25h113.386v113.386H368z"/><path d="M656.21 713.39s4.5 58.431-71.91 58.431H255.98c-76.41 0-71.91-58.431-71.91-58.431V266.51l62.92-51.36H593.3l62.91 51.36v446.88zM547.48 558.01V332H290.65v226.01h256.83z" fill="#a3d9ff"/><path d="M547.48 332v226.01H290.65V332h256.83zm-30.39 199.27V358.73H321.03v172.54h196.06z" fill="#0b00ea"/><path fill="#fff400" d="M321.03 358.73h196.06v172.54H321.03zM487.12 148.37H318.26V72.6h201.61v75.77z"/><g fill="none" stroke="#231f20"><path d="M408.37 771.82H584.3c76.41 0 71.91-58.431 71.91-58.431V266.51l-62.91-51.36H246.99l-62.92 51.36v446.88s-4.5 58.431 71.91 58.431h152.39z" stroke-width="21"/><path stroke-width="21" d="M290.65 332h256.831v226.01H290.65z"/><path stroke-width="14" d="M321.03 358.73h196.06v172.54H321.03z"/><path stroke-width="21" stroke-linecap="round" stroke-linejoin="round" d="M487.12 147.08v61H352.93v-59.71"/><path stroke-width="35" stroke-linecap="round" stroke-linejoin="round" d="M352.93 148.37h-34.67V72.6h201.61v75.77h-32.75z"/></g><path fill="none" d="M0 0h850.394v850.394H0z"/></svg>
